apps/webapp/src/assets/logo/logo-name-vertical.svg

<svg xmlns="http://www.w3.org/2000/svg" xml:space="preserve" style="fill-rule:evenodd;clip-rule:evenodd;stroke-linecap:round;stroke-miterlimit:1.5" viewBox="0 0 1200 300"><circle cx="640" cy="640" r="602.509" style="fill:hsl(0 0% 100%)" transform="matrix(.237 0 0 .237 -2.663 -1.686)"/><path d="M200 640V440l400-200 400 200v200L600 450z" style="fill:none;stroke:#000;stroke-opacity:0;stroke-width:41.03px" transform="matrix(.21272 0 0 .21272 21.319 1.028)"/><path d="M200 640V440l400-200 400 200v200L600 450z" style="fill:hsl(142.1 70.6% 45.3%)" transform="matrix(.21272 0 0 .21272 21.319 1.028)"/><path d="M200 640V440l400-200 400 200v200L600 450z" style="fill:none;stroke:#000;stroke-opacity:0;stroke-width:41.03px" transform="matrix(.21272 0 0 -.21272 21.319 298.828)"/><path d="M200 640V440l400-200 400 200v200L600 450z" style="fill:hsl(346.8 77.2% 49.8%)" transform="matrix(.21272 0 0 -.21272 21.319 298.828)"/><path d="M392.411 261.881v7.174h-14.976v7.749h11.206v6.964h-11.206v14.871h-8.953v-36.758zM405.92 261.881v21.992q0 3.299 1.623 5.079 1.624 1.78 4.765 1.78 3.142 0 4.818-1.78t1.675-5.079v-21.992h8.954v21.94q0 4.922-2.095 8.325-2.094 3.404-5.628 5.132-3.536 1.728-7.881 1.728t-7.776-1.702q-3.429-1.702-5.419-5.132t-1.99-8.351v-21.94zM466.921 298.639h-8.953l-14.976-22.672v22.672h-8.954v-36.758h8.954l14.976 22.778v-22.778h8.953zM487.185 261.881q5.813 0 10.158 2.304 4.347 2.304 6.729 6.467t2.382 9.608q0 5.394-2.382 9.582-2.382 4.19-6.755 6.493t-10.132 2.304h-13.771v-36.758zm-.576 29.009q5.08 0 7.907-2.776t2.827-7.854q0-5.079-2.827-7.906t-7.907-2.828h-4.241v21.364zM524.781 299.006q-4.032 0-7.226-1.309-3.194-1.31-5.105-3.875t-2.016-6.179h9.53q.209 2.043 1.413 3.116t3.142 1.073q1.99 0 3.142-.916 1.152-.917 1.152-2.54 0-1.361-.917-2.251-.916-.89-2.251-1.466t-3.796-1.31q-3.56-1.1-5.813-2.199-2.251-1.1-3.874-3.246t-1.623-5.603q0-5.132 3.717-8.037 3.719-2.906 9.687-2.906 6.073 0 9.792 2.906 3.717 2.906 3.979 8.09h-9.687q-.105-1.78-1.309-2.802-1.204-1.02-3.089-1.021-1.623 0-2.618.864t-.995 2.487q0 1.78 1.676 2.775 1.675.996 5.236 2.147 3.56 1.205 5.786 2.304 2.225 1.1 3.848 3.194 1.623 2.095 1.623 5.394 0 3.14-1.597 5.707-1.596 2.565-4.634 4.084-3.036 1.518-7.173 1.519" style="fill:#fafbfc;fill-rule:nonzero" transform="translate(-987.85 -931.707)scale(3.59191)"/><path d="M394.924 303.771v7.173h-9.739v29.584h-8.954v-29.584h-9.739v-7.173zM418.173 340.528l-7.645-13.875h-2.147v13.875h-8.954v-36.757h15.028q4.346 0 7.409 1.518t4.582 4.163q1.518 2.644 1.518 5.89 0 3.666-2.068 6.546t-6.1 4.084l8.483 14.556zm-9.792-20.211h5.55q2.462 0 3.692-1.205 1.23-1.204 1.23-3.403 0-2.094-1.23-3.299-1.23-1.204-3.692-1.204h-5.55zM456.449 334.035H442.73l-2.199 6.493h-9.373l13.3-36.757h10.368l13.3 36.757h-9.478zm-2.304-6.911-4.555-13.457-4.503 13.457zM470.639 322.097q0-5.445 2.356-9.713 2.357-4.268 6.572-6.65t9.556-2.382q6.545 0 11.205 3.455t6.231 9.426h-9.844q-1.1-2.304-3.115-3.509-2.017-1.204-4.582-1.204-4.137 0-6.702 2.88t-2.566 7.697 2.566 7.697q2.565 2.88 6.702 2.88 2.565 0 4.582-1.204 2.016-1.205 3.115-3.508h9.844q-1.57 5.969-6.231 9.398-4.66 3.43-11.205 3.43-5.341 0-9.556-2.382-4.215-2.384-6.572-6.624-2.356-4.242-2.356-9.687M533.368 340.528l-12.357-16.232v16.232h-8.954v-36.757h8.954v16.127l12.252-16.127h10.525l-14.242 18.012 14.766 18.745zM557.507 310.944v7.435h11.991v6.912h-11.991v8.064h13.561v7.173h-22.515v-36.757h22.515v7.173zM595.626 340.528l-7.645-13.875h-2.147v13.875h-8.953v-36.757h15.027q4.346 0 7.41 1.518t4.581 4.163q1.52 2.644 1.519 5.89 0 3.666-2.069 6.546-2.067 2.88-6.1 4.084l8.483 14.556zm-9.792-20.211h5.551q2.46 0 3.691-1.205 1.231-1.204 1.231-3.403 0-2.094-1.231-3.299-1.23-1.204-3.691-1.204h-5.551z" style="fill:#fafbfc;fill-rule:nonzero" transform="translate(-981.226 -931.155)scale(3.59191)"/></svg>

<?xml version="1.0" encoding="UTF-8" standalone="no"?>
<!DOCTYPE svg PUBLIC "-//W3C//DTD SVG 1.1//EN" "http://www.w3.org/Graphics/SVG/1.1/DTD/svg11.dtd">
<svg width="100%" height="100%" viewBox="0 0 1200 300" version="1.1" xmlns="http://www.w3.org/2000/svg" xmlns:xlink="http://www.w3.org/1999/xlink" xml:space="preserve" xmlns:serif="http://www.serif.com/" style="fill-rule:evenodd;clip-rule:evenodd;stroke-linecap:round;stroke-miterlimit:1.5;">
    <g transform="matrix(0.24,0,0,0.24,149.023,150)">
        <g transform="matrix(1,0,0,1,-600,-600)">
            <g transform="matrix(0.987538,0,0,0.987538,-32.0242,-32.0242)">
                <circle cx="640" cy="640" r="602.509" style="fill:rgb(250,251,252);"/>
            </g>
            <g transform="matrix(0.793491,0,0,0.793491,600,600)">
                <g transform="matrix(1,0,0,1,-488.5,-555.5)">
                    <g transform="matrix(1,0,0,1,-147.056,-67.3771)">
                        <g transform="matrix(1.11698,0,0,1.11698,-35.0255,-159.384)">
                            <path d="M200,640L200,440L600,240L1000,440L1000,640L600,450L200,640Z" style="fill:none;stroke:black;stroke-opacity:0;stroke-width:41.03px;"/>
                            <path d="M200,640L200,440L600,240L1000,440L1000,640L600,450L200,640Z" style="fill:rgb(63,140,255);"/>
                        </g>
                        <g transform="matrix(1.11698,0,0,-1.11698,-35.0255,1404.38)">
                            <path d="M200,640L200,440L600,240L1000,440L1000,640L600,450L200,640Z" style="fill:none;stroke:black;stroke-opacity:0;stroke-width:41.03px;"/>
                            <path d="M200,640L200,440L600,240L1000,440L1000,640L600,450L200,640Z" style="fill:rgb(125,202,199);"/>
                        </g>
                    </g>
                </g>
            </g>
        </g>
    </g>
    <g transform="matrix(3.59191,0,0,3.59191,-985.09,-931.155)">
        <g transform="matrix(1,0,0,1,-0.768363,-0.153673)">
            <path d="M392.411,261.881L392.411,269.055L377.435,269.055L377.435,276.804L388.641,276.804L388.641,283.768L377.435,283.768L377.435,298.639L368.482,298.639L368.482,261.881L392.411,261.881Z" style="fill:rgb(250,251,252);fill-rule:nonzero;"/>
        </g>
        <g transform="matrix(1,0,0,1,-0.768363,-0.153673)">
            <path d="M405.92,261.881L405.92,283.873C405.92,286.072 406.461,287.765 407.543,288.952C408.625,290.139 410.214,290.732 412.308,290.732C414.403,290.732 416.008,290.139 417.126,288.952C418.243,287.765 418.801,286.072 418.801,283.873L418.801,261.881L427.755,261.881L427.755,283.821C427.755,287.102 427.057,289.877 425.66,292.146C424.264,294.415 422.388,296.126 420.032,297.278C417.675,298.43 415.048,299.006 412.151,299.006C409.254,299.006 406.662,298.438 404.375,297.304C402.089,296.169 400.283,294.459 398.956,292.172C397.63,289.886 396.966,287.102 396.966,283.821L396.966,261.881L405.92,261.881Z" style="fill:rgb(250,251,252);fill-rule:nonzero;"/>
        </g>
        <g transform="matrix(1,0,0,1,-0.768363,-0.153673)">
            <path d="M466.921,298.639L457.968,298.639L442.992,275.967L442.992,298.639L434.038,298.639L434.038,261.881L442.992,261.881L457.968,284.659L457.968,261.881L466.921,261.881L466.921,298.639Z" style="fill:rgb(250,251,252);fill-rule:nonzero;"/>
        </g>
        <g transform="matrix(1,0,0,1,-0.768363,-0.153673)">
            <path d="M487.185,261.881C491.06,261.881 494.446,262.649 497.343,264.185C500.241,265.721 502.484,267.877 504.072,270.652C505.66,273.427 506.454,276.63 506.454,280.26C506.454,283.856 505.66,287.05 504.072,289.842C502.484,292.635 500.232,294.799 497.317,296.335C494.402,297.871 491.025,298.639 487.185,298.639L473.414,298.639L473.414,261.881L487.185,261.881ZM486.609,290.89C489.995,290.89 492.631,289.965 494.516,288.114C496.401,286.264 497.343,283.646 497.343,280.26C497.343,276.874 496.401,274.239 494.516,272.354C492.631,270.469 489.995,269.526 486.609,269.526L482.368,269.526L482.368,290.89L486.609,290.89Z" style="fill:rgb(250,251,252);fill-rule:nonzero;"/>
        </g>
        <g transform="matrix(1,0,0,1,-0.768363,-0.153673)">
            <path d="M524.781,299.006C522.093,299.006 519.684,298.569 517.555,297.697C515.426,296.824 513.724,295.532 512.45,293.822C511.176,292.111 510.504,290.052 510.434,287.643L519.964,287.643C520.103,289.005 520.574,290.043 521.377,290.759C522.18,291.474 523.227,291.832 524.519,291.832C525.846,291.832 526.893,291.527 527.661,290.916C528.429,290.305 528.813,289.458 528.813,288.376C528.813,287.469 528.507,286.718 527.896,286.125C527.285,285.531 526.535,285.043 525.645,284.659C524.755,284.275 523.489,283.838 521.849,283.349C519.475,282.616 517.538,281.883 516.036,281.15C514.535,280.417 513.244,279.335 512.162,277.904C511.08,276.473 510.539,274.605 510.539,272.301C510.539,268.88 511.778,266.201 514.256,264.264C516.735,262.326 519.964,261.358 523.943,261.358C527.992,261.358 531.256,262.326 533.735,264.264C536.213,266.201 537.54,268.898 537.714,272.354L528.027,272.354C527.957,271.167 527.521,270.233 526.718,269.552C525.915,268.872 524.886,268.531 523.629,268.531C522.547,268.531 521.674,268.819 521.011,269.395C520.348,269.971 520.016,270.8 520.016,271.882C520.016,273.069 520.574,273.994 521.692,274.657C522.809,275.321 524.554,276.036 526.928,276.804C529.301,277.607 531.23,278.375 532.714,279.108C534.197,279.841 535.48,280.906 536.562,282.302C537.644,283.699 538.185,285.496 538.185,287.696C538.185,289.79 537.653,291.692 536.588,293.403C535.524,295.113 533.979,296.475 531.954,297.487C529.93,298.499 527.539,299.006 524.781,299.006Z" style="fill:rgb(250,251,252);fill-rule:nonzero;"/>
        </g>
        <g transform="matrix(1,0,0,1,1.07571,0)">
            <path d="M394.924,303.771L394.924,310.944L385.185,310.944L385.185,340.528L376.231,340.528L376.231,310.944L366.492,310.944L366.492,303.771L394.924,303.771Z" style="fill:rgb(250,251,252);fill-rule:nonzero;"/>
        </g>
        <g transform="matrix(1,0,0,1,1.07571,0)">
            <path d="M418.173,340.528L410.528,326.653L408.381,326.653L408.381,340.528L399.427,340.528L399.427,303.771L414.455,303.771C417.352,303.771 419.822,304.277 421.864,305.289C423.906,306.301 425.434,307.689 426.446,309.452C427.458,311.215 427.964,313.178 427.964,315.342C427.964,317.786 427.275,319.968 425.896,321.888C424.517,323.808 422.484,325.169 419.796,325.972L428.279,340.528L418.173,340.528ZM408.381,320.317L413.931,320.317C415.572,320.317 416.803,319.915 417.623,319.112C418.443,318.31 418.853,317.175 418.853,315.709C418.853,314.313 418.443,313.213 417.623,312.41C416.803,311.607 415.572,311.206 413.931,311.206L408.381,311.206L408.381,320.317Z" style="fill:rgb(250,251,252);fill-rule:nonzero;"/>
        </g>
        <g transform="matrix(1,0,0,1,1.07571,0)">
            <path d="M456.449,334.035L442.73,334.035L440.531,340.528L431.158,340.528L444.458,303.771L454.826,303.771L468.126,340.528L458.648,340.528L456.449,334.035ZM454.145,327.124L449.59,313.667L445.087,327.124L454.145,327.124Z" style="fill:rgb(250,251,252);fill-rule:nonzero;"/>
        </g>
        <g transform="matrix(1,0,0,1,1.07571,0)">
            <path d="M470.639,322.097C470.639,318.467 471.424,315.229 472.995,312.384C474.566,309.539 476.757,307.322 479.567,305.734C482.377,304.146 485.562,303.352 489.123,303.352C493.486,303.352 497.221,304.504 500.328,306.807C503.435,309.111 505.512,312.253 506.559,316.233L496.715,316.233C495.982,314.697 494.944,313.527 493.6,312.724C492.256,311.921 490.728,311.52 489.018,311.52C486.26,311.52 484.026,312.48 482.316,314.4C480.605,316.32 479.75,318.886 479.75,322.097C479.75,325.309 480.605,327.874 482.316,329.794C484.026,331.714 486.26,332.674 489.018,332.674C490.728,332.674 492.256,332.273 493.6,331.47C494.944,330.667 495.982,329.497 496.715,327.962L506.559,327.962C505.512,331.941 503.435,335.074 500.328,337.36C497.221,339.647 493.486,340.79 489.123,340.79C485.562,340.79 482.377,339.996 479.567,338.408C476.757,336.819 474.566,334.611 472.995,331.784C471.424,328.956 470.639,325.727 470.639,322.097Z" style="fill:rgb(250,251,252);fill-rule:nonzero;"/>
        </g>
        <g transform="matrix(1,0,0,1,1.07571,0)">
            <path d="M533.368,340.528L521.011,324.296L521.011,340.528L512.057,340.528L512.057,303.771L521.011,303.771L521.011,319.898L533.263,303.771L543.788,303.771L529.546,321.783L544.312,340.528L533.368,340.528Z" style="fill:rgb(250,251,252);fill-rule:nonzero;"/>
        </g>
        <g transform="matrix(1,0,0,1,1.07571,0)">
            <path d="M557.507,310.944L557.507,318.379L569.498,318.379L569.498,325.291L557.507,325.291L557.507,333.355L571.068,333.355L571.068,340.528L548.553,340.528L548.553,303.771L571.068,303.771L571.068,310.944L557.507,310.944Z" style="fill:rgb(250,251,252);fill-rule:nonzero;"/>
        </g>
        <g transform="matrix(1,0,0,1,1.07571,0)">
            <path d="M595.626,340.528L587.981,326.653L585.834,326.653L585.834,340.528L576.881,340.528L576.881,303.771L591.908,303.771C594.806,303.771 597.275,304.277 599.318,305.289C601.36,306.301 602.887,307.689 603.899,309.452C604.912,311.215 605.418,313.178 605.418,315.342C605.418,317.786 604.728,319.968 603.349,321.888C601.971,323.808 599.937,325.169 597.249,325.972L605.732,340.528L595.626,340.528ZM585.834,320.317L591.385,320.317C593.025,320.317 594.256,319.915 595.076,319.112C595.897,318.31 596.307,317.175 596.307,315.709C596.307,314.313 595.897,313.213 595.076,312.41C594.256,311.607 593.025,311.206 591.385,311.206L585.834,311.206L585.834,320.317Z" style="fill:rgb(250,251,252);fill-rule:nonzero;"/>
        </g>
    </g>
</svg>
